file/haggen.svg

<svg clip-rule="evenodd" fill-rule="evenodd" stroke-linejoin="round" stroke-miterlimit="1.41421" viewBox="0 0 560 400" xmlns="http://www.w3.org/2000/svg"><path d="m345.4-7.1c3.7.6 10.7 4.3 11.1 6.1-.6 1.2-8.5-2.3-11.1-6.1m-27.9-10.2c-7.1-1.7-15.9-9.5-19.6-13.4-1.3-1.4-4.7-5.4-3.7-6 3-1.3 18.2 13.7 23.3 19.4m-36.7 1.9c-3.9-1.8-9.5-6-12-8.2-2.9-2.6-5.2-5.7-6.5-7.5-.3-.3-.3-.5.1-.4 2.7.8 5.1 2.4 7.6 4.6 4.1 3.6 8.7 8.3 10.8 11.5m-31.5 12.4c.3-.3.6-.9.6-1.5 0-.7-3.2-6.7-3.5-7.9-.3-1.8 15.7 5.8 21 7.8 3.1 2.2 6.8 3.5 9.5 4 .9.2 2.7.2 3.4.2 1-.1 2-.4 2.5-.9.3-.4.3-.7.5-1 .1-.4.3-1.1.4-1.6 0-.5-.1-.6-.4-.8-.4-.2-.7 0-1 .1-2.2.8-5.3-.3-7.9-1.4-2.6-1.2-4.4-3-5.4-4.3-.3-.3-.1-.4.3-.3 3.1.3 5.7 1.6 8.9 3 1.8.8 6.9 3.4 8.7 4.5.7.4 1 .9 1.2 1.1.3.3.5.5 1 .7.4.1.9 0 1.2-.2.3-.1.5-.2 1-.4s.6-.6.8-.8.3-.7.2-1.3c-.1-.4-2.3-3.7-2.8-4.5 11.4 4.2 22.4 9.5 30.1 10.8 2.3.4 4.5-.3 4.8-1.3s.1-1.9.1-2.6c0-.6-.1-.7-.4-.9s-1.7.4-2.1.4c-.3.1-1 .1-1.3.1-3.5-.7-8.4-2.7-10.2-6-.6-1-.3-1.3.3-1.2 5.3.8 13.4 5.8 16.9 7.9.4.3 1.1 1.3 1.6 1.2 1.6-.2 2.4-1.5 2.5-1.7s.2-.7-.3-1.9c-.8-2.3-2.5-5.1-3.8-7.2 3.9.9 8.4 2 12.5 2.9 3.4 6.7 11.1 10.4 14.3 10.5 6.4.2 6.4-2.3 6.6-2.7.4-.8-.3-1.8-.6-2.4-.4-.9-1.4-1.9-2.8-2.8-2.9-1.8-8.4-3.7-13.3-5.2-.2-.3-1.1-2.5 2.1-2.5 9 0 22.2 5.5 31.3 10.8.7.4 2.3.7 2.7.7.7.1 1.7-.2 2.3-.4.4-.1 1-.3 1.2-.4.3-.1.5-.6.6-1 .1-.6-1.3-2.8-2-4.2 4.8 3 15 6.9 18.4 7.8 1.2.3 3.1.7 4.5.5 1.1-.2 1.5-.9 1.8-1.2.2-.2.7-.7 1-1.4.2-.5.4-1.1.3-1.7-.1-.3-2.8-3.6-3.2-5.3-2.2-3.3 29.4 12.2 41.6 0 .3-.3.3-.6.5-1.1.6-1.4-.9-1-1.3-.6-6.1 6.1-22.5 4.9-41.1-3.1-.7-.3-1.4-.2-1.7.1-.3.2-1.6 1.2-1.9 1.5-.2.2-1.6 1.8-1.5 2.5.3 1.7 4.2 6.3 2.1 6.2-7-1.4-16.8-7.1-24.3-10.8-1.1-.5-1.7-.1-2.2.5-.3.4-.8.6-1.3 1.3-.5.8.1 1.7.5 2.3 1 1.6 2.4 3.1 2.7 3.5-8.9-4.2-21.4-10.1-30.4-10.5-1.4-.1-3.1.6-4.2 1-3.2 1.1-3 4.1-2.9 4.7-6.8-1.5-11.8-2.6-14.6-3.5-5.8-6.9-18.6-20.3-25.5-24.1-1-.6-4.3-1.6-5.9-.5-.4.3-1.6 2.2-2.1 2.9-.4.6-.6 1.5-.5 2.3.1.3.1.7.4 1.2.2.3 4.8 8.9 17.6 15.8 3.1 1.7 8.5 3.8 12.8 5.4 1.4 1.8 2.5 3.4 3.5 5.3-1.8-1.1-4.2-2.2-6.4-3.2-3.7-1.8-8.5-4.1-10.8-4.2-.4 0-1.3 0-2 .5-.8.6-1.3 1.1-1.8 2-.5.8-.3 1.5-.2 1.9.2 1.1 3.2 4.2 4.4 5.3-5.8-1.6-15.8-5.7-21.3-8.2-2.7-4-6.4-9.2-11.3-13.9-4.4-4.2-7.6-6.1-8.9-6.7s-4.1-1.6-5.1-1.1c-.7.3-2.7 2.2-2.8 3-.1.7.1 1.4.7 2.5 1.1 2 3.7 6.2 9.5 10.2 7.1 4.9 10.3 5.7 13.7 7.4.2.3 2.3 3.6 2.5 4.1-2.6-2.2-6.1-3.9-9-5.4-3.4-1.7-7.9-3.3-10.1-2.7-.4.1-1.2.8-1.4 1.3-.4.7-1.3 1.4-1.2 2.3 0 .9.5 1.9 1.1 3.2-3.9-1.4-15.2-7-19.9-8.3-.9-.3-2.5 1.5-3 2-.8.7-.6 1.6-.1 2.2.3.3.5.7 1.5 2.4-4.4-3-14.9-7.6-18.5-7.9-1-.1-1.4.1-1.9.6-.5.6-1 1-1.6 1.7-.4.5-.2 1.7.1 2.5 1 2.2 3.7 5.2 6.8 7.2 3.5 2.2 7.2 4.8 10.4 6-4.3-1-11.5-2.4-20.3-3.8-6.6-8.1-12.8-16.3-17.2-23.5-1-1.6-1.8-3.8-2.4-4.5s-1.5-.2-1.8.3c-.5 1-1.7 1.7-2.2 2.2-.8.8-.5 1.6.2 2.8 5.6 9.1 11.4 16.5 15.5 21.5-10.6-1.7-15.4-2.8-23.7-3.7-6.2-7.5-13.3-19.1-16.5-23.8-.7-1.1-1-1.3-1.8-.9-.9.4-2.5 1.7-2.8 2.4s.1 1.4.7 2.5c3.2 5.5 10.4 15.7 13.2 19.4-12.7-1.4-26.8-3.1-37.9-3.1-2.7 0-4.2 2.4-4.7 3.3-.9 1.5 0 1.4.9 1.6.8.2 3.3.2 5.3.1 2.7-.1 2.4-.5 3.7-.8 2.2-.4 25 1.8 35.7 2.7 6.4 7.7 20.4 23.3 21.5 24.4.8.8 2.3 1.9 3.4 1.2 1.7-1 3.2-1.9 2.9-2.7-.2-.5-.6-.5-1.4-1.2-2.5-2-15.3-16.6-19.1-21.2 7.2.9 12.8 1.9 23.7 3.6 8 9.7 15.3 18 21.4 23.8.6.5 1.7 1.7 2.9 1.9.7.1 2.2-.5 2.7-.8 1-.7 2.1-1.4 1.7-2.1-.3-.6-1.1-.6-2.1-1.5-4.2-3.6-13.2-13.5-18.4-20.1 7.5.9 16.2 2.8 23.5 4.2 1.5.3 1.4 1.2 2.8.6 1.7-.7 3.7-2.3 2.8-3.3-.6-.6-3.6-2.1-3.9-2.1-1.2-.1-2.1-.3-2.5-.4-2.3-.8-18.3-10.6-17.8-12.1.1-.4-.2-.5.3-.4 5.3 1.3 13.9 5.4 16 7.3 1.2 1.1 2.4 2.5 2.9 3.9 0 1.6 2.6-.3 3-.8m185.3-10v1.2h.9c.4 0 .9-.1.9-.6 0-.6-.5-.6-1-.6zm0-.5h.7l1.1-1.7h.7l-1.2 1.7c.6.1 1.1.4 1.1 1.1 0 .8-.5 1.1-1.5 1.1h-1.5v-3.9h.6zm.8-3.1c2 0 3.7 1.4 3.7 3.4 0 1.9-1.7 3.4-3.7 3.4s-3.7-1.4-3.7-3.4 1.7-3.4 3.7-3.4m-3 3.3c0 1.6 1.3 2.8 3 2.8 1.6 0 2.9-1.2 2.9-2.8s-1.3-2.8-2.9-2.8c-1.7 0-3 1.2-3 2.8" fill="#00502f" fill-rule="nonzero" transform="matrix(1.3931 0 0 -1.3931 -127.251 189.286)"/></svg>

<?xml version="1.0" encoding="UTF-8" standalone="no"?>
<!DOCTYPE svg PUBLIC "-//W3C//DTD SVG 1.1//EN" "http://www.w3.org/Graphics/SVG/1.1/DTD/svg11.dtd">
<svg width="100%" height="100%" viewBox="0 0 560 400" version="1.1" xmlns="http://www.w3.org/2000/svg" xmlns:xlink="http://www.w3.org/1999/xlink" xml:space="preserve" xmlns:serif="http://www.serif.com/" style="fill-rule:evenodd;clip-rule:evenodd;stroke-linejoin:round;stroke-miterlimit:1.41421;">
    <g id="GreenGoddessDressing" transform="matrix(1.3931,0,0,-1.3931,-127.251,189.286)">
        <path d="M345.4,-7.1C349.1,-6.5 356.1,-2.8 356.5,-1C355.9,0.2 348,-3.3 345.4,-7.1M317.5,-17.3C310.4,-19 301.6,-26.8 297.9,-30.7C296.6,-32.1 293.2,-36.1 294.2,-36.7C297.2,-38 312.4,-23 317.5,-17.3M280.8,-15.4C276.9,-17.2 271.3,-21.4 268.8,-23.6C265.9,-26.2 263.6,-29.3 262.3,-31.1C262,-31.4 262,-31.6 262.4,-31.5C265.1,-30.7 267.5,-29.1 270,-26.9C274.1,-23.3 278.7,-18.6 280.8,-15.4M249.3,-3C249.6,-3.3 249.9,-3.9 249.9,-4.5C249.9,-5.2 246.7,-11.2 246.4,-12.4C246.1,-14.2 262.1,-6.6 267.4,-4.6C270.5,-2.4 274.2,-1.1 276.9,-0.6C277.8,-0.4 279.6,-0.4 280.3,-0.4C281.3,-0.5 282.3,-0.8 282.8,-1.3C283.1,-1.7 283.1,-2 283.3,-2.3C283.4,-2.7 283.6,-3.4 283.7,-3.9C283.7,-4.4 283.6,-4.5 283.3,-4.7C282.9,-4.9 282.6,-4.7 282.3,-4.6C280.1,-3.8 277,-4.9 274.4,-6C271.8,-7.2 270,-9 269,-10.3C268.7,-10.6 268.9,-10.7 269.3,-10.6C272.4,-10.3 275,-9 278.2,-7.6C280,-6.8 285.1,-4.2 286.9,-3.1C287.6,-2.7 287.9,-2.2 288.1,-2C288.4,-1.7 288.6,-1.5 289.1,-1.3C289.5,-1.2 290,-1.3 290.3,-1.5C290.6,-1.6 290.8,-1.7 291.3,-1.9C291.8,-2.1 291.9,-2.5 292.1,-2.7C292.3,-2.9 292.4,-3.4 292.3,-4C292.2,-4.4 290,-7.7 289.5,-8.5C300.9,-4.3 311.9,1 319.6,2.3C321.9,2.7 324.1,2 324.4,1C324.7,0 324.5,-0.9 324.5,-1.6C324.5,-2.2 324.4,-2.3 324.1,-2.5C323.8,-2.7 322.4,-2.1 322,-2.1C321.7,-2 321,-2 320.7,-2C317.2,-2.7 312.3,-4.7 310.5,-8C309.9,-9 310.2,-9.3 310.8,-9.2C316.1,-8.4 324.2,-3.4 327.7,-1.3C328.1,-1 328.8,0 329.3,-0.1C330.9,-0.3 331.7,-1.6 331.8,-1.8C331.9,-2 332,-2.5 331.5,-3.7C330.7,-6 329,-8.8 327.7,-10.9C331.6,-10 336.1,-8.9 340.2,-8C343.6,-1.3 351.3,2.4 354.5,2.5C360.9,2.7 360.9,0.2 361.1,-0.2C361.5,-1 360.8,-2 360.5,-2.6C360.1,-3.5 359.1,-4.5 357.7,-5.4C354.8,-7.2 349.3,-9.1 344.4,-10.6C344.2,-10.9 343.3,-13.1 346.5,-13.1C355.5,-13.1 368.7,-7.6 377.8,-2.3C378.5,-1.9 380.1,-1.6 380.5,-1.6C381.2,-1.5 382.2,-1.8 382.8,-2C383.2,-2.1 383.8,-2.3 384,-2.4C384.3,-2.5 384.5,-3 384.6,-3.4C384.7,-4 383.3,-6.2 382.6,-7.6C387.4,-4.6 397.6,-0.7 401,0.2C402.2,0.5 404.1,0.9 405.5,0.7C406.6,0.5 407,-0.2 407.3,-0.5C407.5,-0.7 408,-1.2 408.3,-1.9C408.5,-2.4 408.7,-3 408.6,-3.6C408.5,-3.9 405.8,-7.2 405.4,-8.9C403.2,-12.2 434.8,3.3 447,-8.9C447.3,-9.2 447.3,-9.5 447.5,-10C448.1,-11.4 446.6,-11 446.2,-10.6C440.1,-4.5 423.7,-5.7 405.1,-13.7C404.4,-14 403.7,-13.9 403.4,-13.6C403.1,-13.4 401.8,-12.4 401.5,-12.1C401.3,-11.9 399.9,-10.3 400,-9.6C400.3,-7.9 404.2,-3.3 402.1,-3.4C395.1,-4.8 385.3,-10.5 377.8,-14.2C376.7,-14.7 376.1,-14.3 375.6,-13.7C375.3,-13.3 374.8,-13.1 374.3,-12.4C373.8,-11.6 374.4,-10.7 374.8,-10.1C375.8,-8.5 377.2,-7 377.5,-6.6C368.6,-10.8 356.1,-16.7 347.1,-17.1C345.7,-17.2 344,-16.5 342.9,-16.1C339.7,-15 339.9,-12 340,-11.4C333.2,-12.9 328.2,-14 325.4,-14.9C319.6,-21.8 306.8,-35.2 299.9,-39C298.9,-39.6 295.6,-40.6 294,-39.5C293.6,-39.2 292.4,-37.3 291.9,-36.6C291.5,-36 291.3,-35.1 291.4,-34.3C291.5,-34 291.5,-33.6 291.8,-33.1C292,-32.8 296.6,-24.2 309.4,-17.3C312.5,-15.6 317.9,-13.5 322.2,-11.9C323.6,-10.1 324.7,-8.5 325.7,-6.6C323.9,-7.7 321.5,-8.8 319.3,-9.8C315.6,-11.6 310.8,-13.9 308.5,-14C308.1,-14 307.2,-14 306.5,-13.5C305.7,-12.9 305.2,-12.4 304.7,-11.5C304.2,-10.7 304.4,-10 304.5,-9.6C304.7,-8.5 307.7,-5.4 308.9,-4.3C303.1,-5.9 293.1,-10 287.6,-12.5C284.9,-16.5 281.2,-21.7 276.3,-26.4C271.9,-30.6 268.7,-32.5 267.4,-33.1C266.1,-33.7 263.3,-34.7 262.3,-34.2C261.6,-33.9 259.6,-32 259.5,-31.2C259.4,-30.5 259.6,-29.8 260.2,-28.7C261.3,-26.7 263.9,-22.5 269.7,-18.5C276.8,-13.6 280,-12.8 283.4,-11.1C283.6,-10.8 285.7,-7.5 285.9,-7C283.3,-9.2 279.8,-10.9 276.9,-12.4C273.5,-14.1 269,-15.7 266.8,-15.1C266.4,-15 265.6,-14.3 265.4,-13.8C265,-13.1 264.1,-12.4 264.2,-11.5C264.2,-10.6 264.7,-9.6 265.3,-8.3C261.4,-9.7 250.1,-15.3 245.4,-16.6C244.5,-16.9 242.9,-15.1 242.4,-14.6C241.6,-13.9 241.8,-13 242.3,-12.4C242.6,-12.1 242.8,-11.7 243.8,-10C239.4,-13 228.9,-17.6 225.3,-17.9C224.3,-18 223.9,-17.8 223.4,-17.3C222.9,-16.7 222.4,-16.3 221.8,-15.6C221.4,-15.1 221.6,-13.9 221.9,-13.1C222.9,-10.9 225.6,-7.9 228.7,-5.9C232.2,-3.7 235.9,-1.1 239.1,0.1C234.8,-0.9 227.6,-2.3 218.8,-3.7C212.2,-11.8 206,-20 201.6,-27.2C200.6,-28.8 199.8,-31 199.2,-31.7C198.6,-32.4 197.7,-31.9 197.4,-31.4C196.9,-30.4 195.7,-29.7 195.2,-29.2C194.4,-28.4 194.7,-27.6 195.4,-26.4C201,-17.3 206.8,-9.9 210.9,-4.9C200.3,-6.6 195.5,-7.7 187.2,-8.6C181,-16.1 173.9,-27.7 170.7,-32.4C170,-33.5 169.7,-33.7 168.9,-33.3C168,-32.9 166.4,-31.6 166.1,-30.9C165.8,-30.2 166.2,-29.5 166.8,-28.4C170,-22.9 177.2,-12.7 180,-9C167.3,-10.4 153.2,-12.1 142.1,-12.1C139.4,-12.1 137.9,-9.7 137.4,-8.8C136.5,-7.3 137.4,-7.4 138.3,-7.2C139.1,-7 141.6,-7 143.6,-7.1C146.3,-7.2 146,-7.6 147.3,-7.9C149.5,-8.3 172.3,-6.1 183,-5.2C189.4,2.5 203.4,18.1 204.5,19.2C205.3,20 206.8,21.1 207.9,20.4C209.6,19.4 211.1,18.5 210.8,17.7C210.6,17.2 210.2,17.2 209.4,16.5C206.9,14.5 194.1,-0.1 190.3,-4.7C197.5,-3.8 203.1,-2.8 214,-1.1C222,8.6 229.3,16.9 235.4,22.7C236,23.2 237.1,24.4 238.3,24.6C239,24.7 240.5,24.1 241,23.8C242,23.1 243.1,22.4 242.7,21.7C242.4,21.1 241.6,21.1 240.6,20.2C236.4,16.6 227.4,6.7 222.2,0.1C229.7,1 238.4,2.9 245.7,4.3C247.2,4.6 247.1,5.5 248.5,4.9C250.2,4.2 252.2,2.6 251.3,1.6C250.7,1 247.7,-0.5 247.4,-0.5C246.2,-0.6 245.3,-0.8 244.9,-0.9C242.6,-1.7 226.6,-11.5 227.1,-13C227.2,-13.4 226.9,-13.5 227.4,-13.4C232.7,-12.1 241.3,-8 243.4,-6.1C244.6,-5 245.8,-3.6 246.3,-2.2C246.3,-0.6 248.9,-2.5 249.3,-3M434.6,-13L434.6,-11.8L435.5,-11.8C435.9,-11.8 436.4,-11.9 436.4,-12.4C436.4,-13 435.9,-13 435.4,-13L434.6,-13ZM434.6,-13.5L435.3,-13.5L436.4,-15.2L437.1,-15.2L435.9,-13.5C436.5,-13.4 437,-13.1 437,-12.4C437,-11.6 436.5,-11.3 435.5,-11.3L434,-11.3L434,-15.2L434.6,-15.2L434.6,-13.5ZM435.4,-16.6C437.4,-16.6 439.1,-15.2 439.1,-13.2C439.1,-11.3 437.4,-9.8 435.4,-9.8C433.4,-9.8 431.7,-11.2 431.7,-13.2C431.7,-15.2 433.4,-16.6 435.4,-16.6M432.4,-13.3C432.4,-11.7 433.7,-10.5 435.4,-10.5C437,-10.5 438.3,-11.7 438.3,-13.3C438.3,-14.9 437,-16.1 435.4,-16.1C433.7,-16.1 432.4,-14.9 432.4,-13.3" style="fill:rgb(0,80,47);fill-rule:nonzero;"/>
    </g>
</svg>
